.local/share/icons/Gruvbox-Plus-Dark/emblems/24/emblem-generic.svg

<svg xmlns="http://www.w3.org/2000/svg" width="24" height="24" version="1.1" viewBox="0 0 24 24">
 <circle style="fill:#282828" cx="12" cy="12" r="10"/>
 <path style="fill:#ebdbb2" d="M 11 5 L 11 9.5859375 L 7.7578125 6.34375 L 6.34375 7.7578125 L 9.5859375 11 L 5 11 L 5 13 L 9.5859375 13 L 6.34375 16.242188 L 7.7578125 17.65625 L 11 14.414062 L 11 19 L 13 19 L 13 14.414062 L 16.242188 17.65625 L 17.65625 16.242188 L 14.414062 13 L 19 13 L 19 11 L 14.414062 11 L 17.65625 7.7578125 L 16.242188 6.34375 L 13 9.5859375 L 13 5 L 11 5 z"/>
</svg>

<svg width="24" height="24" version="1.1" xmlns="http://www.w3.org/2000/svg">
  <circle cx="12" cy="12" r="10" fill="#504945"/>
  <path d="m11 5v4.5859l-3.2422-3.2422-1.4141 1.4141 3.2422 3.2422h-4.5859v2h4.5859l-3.2422 3.2422 1.4141 1.4141 3.2422-3.2422v4.5859h2v-4.5859l3.2422 3.2422 1.4141-1.4141-3.2422-3.2422h4.5859v-2h-4.5859l3.2422-3.2422-1.4141-1.4141-3.2422 3.2422v-4.5859z" fill="#ebdbb2"/>
</svg>
